////////////////////////
// Cricket Machine
////////////////////////

// Choose crickets
~myCrickets = (11..16);

// Load SynthDefs
"/home/ruviaro/Music/SuperCollider/Cricket_Machine/Cricket_SynthDef.scd".load;

// Load Crickets
"/home/ruviaro/Music/SuperCollider/Cricket_Machine/Cricket_Collection.scd".load;

// Start GUI
"/home/ruviaro/Music/SuperCollider/Cricket_Machine/Crickets_GUI.scd".load


// Window.closeAll;