////////////////////////
// Cricket Machine
////////////////////////

// Choose crickets
~myCrickets = (1..16);

// Load SynthDefs
"/home/lork/Music/SuperCollider/Cricket-Machine/Cricket_SynthDef.scd".load;

// Load Crickets
"/home/lork/Music/SuperCollider/Cricket-Machine/Cricket_Collection.scd".load;

// Start GUI
"/home/lork/Music/SuperCollider/Cricket-Machine/Crickets_GUI.scd".load


// Use this to close all windows:
Window.closeAll;
