////////////////////////
// Cricket Machine
////////////////////////

// Choose crickets
~myCrickets = (1..13);

// Load SynthDefs
"/home/ruviaro/Music/SuperCollider/Cricket-Machine/Cricket_SynthDef.scd".load;

// Load Crickets
"/home/ruviaro/Music/SuperCollider/Cricket-Machine/Cricket_Collection.scd".load;

// Start GUI
"/home/ruviaro/Music/SuperCollider/Cricket-Machine/Crickets_GUI.scd".load

// Window.closeAll;
